public/library/horizon-dex-icon-dark.svg

<svg width="40" height="40" viewBox="0 0 40 40" fill="none" xmlns="http://www.w3.org/2000/svg">
<path fill-rule="evenodd" clip-rule="evenodd" d="M34.3861 16.1535H20.5396C18.1173 16.1535 16.1536 18.1172 16.1536 20.5395V34.386C16.1536 36.8083 18.1173 38.772 20.5396 38.772H34.3861C36.8084 38.772 38.7721 36.8083 38.7721 34.386V20.5395C38.7721 18.1171 36.8084 16.1535 34.3861 16.1535ZM20.5396 14.9254C17.439 14.9254 14.9255 17.4389 14.9255 20.5395V34.386C14.9255 37.4866 17.439 40 20.5396 40H34.3861C37.4867 40 40.0002 37.4865 40.0002 34.386V20.5395C40.0002 17.4389 37.4867 14.9254 34.3861 14.9254H20.5396Z" fill="#CA61FF"/>
<path fill-rule="evenodd" clip-rule="evenodd" d="M26.9237 8.69072H13.0772C10.6549 8.69072 8.6912 10.6544 8.6912 13.0767V26.9232C8.6912 29.3455 10.6549 31.3092 13.0772 31.3092H26.9237C29.346 31.3092 31.3097 29.3455 31.3097 26.9232V13.0767C31.3097 10.6544 29.346 8.69072 26.9237 8.69072ZM13.0772 7.46265C9.97662 7.46265 7.46313 9.97614 7.46313 13.0767V26.9232C7.46313 30.0238 9.97663 32.5373 13.0772 32.5373H26.9237C30.0243 32.5373 32.5378 30.0238 32.5378 26.9232V13.0767C32.5378 9.97614 30.0243 7.46265 26.9237 7.46265H13.0772Z" fill="#616EFF"/>
<path fill-rule="evenodd" clip-rule="evenodd" d="M19.4606 1.22807H5.61403C3.19173 1.22807 1.22807 3.19174 1.22807 5.61404V19.4606C1.22807 21.8829 3.19174 23.8466 5.61404 23.8466H19.4606C21.8829 23.8466 23.8466 21.8829 23.8466 19.4606V5.61404C23.8466 3.19173 21.8829 1.22807 19.4606 1.22807ZM5.61403 0C2.51349 0 0 2.51349 0 5.61404V19.4606C0 22.5611 2.51349 25.0746 5.61404 25.0746H19.4606C22.5611 25.0746 25.0746 22.5611 25.0746 19.4606V5.61404C25.0746 2.51349 22.5611 0 19.4606 0H5.61403Z" fill="#61DFFF"/>
</svg>

<svg xmlns="http://www.w3.org/2000/svg" width="40" height="40" fill="none" viewBox="0 0 40 40"><path fill="#ca61ff" fill-rule="evenodd" d="M34.386 16.154H20.54a4.386 4.386 0 0 0-4.386 4.386v13.846a4.386 4.386 0 0 0 4.386 4.386h13.846a4.386 4.386 0 0 0 4.386-4.386V20.539a4.386 4.386 0 0 0-4.386-4.385M20.54 14.925a5.614 5.614 0 0 0-5.614 5.615v13.846c0 3.1 2.513 5.614 5.614 5.614h13.846c3.1 0 5.614-2.514 5.614-5.614V20.539c0-3.1-2.513-5.614-5.614-5.614z" clip-rule="evenodd"/><path fill="#616eff" fill-rule="evenodd" d="M26.924 8.69H13.077a4.386 4.386 0 0 0-4.386 4.387v13.846a4.386 4.386 0 0 0 4.386 4.386h13.847a4.386 4.386 0 0 0 4.386-4.386V13.077a4.386 4.386 0 0 0-4.386-4.386M13.077 7.464a5.614 5.614 0 0 0-5.614 5.614v13.846c0 3.1 2.514 5.614 5.614 5.614h13.847c3.1 0 5.614-2.513 5.614-5.614V13.077c0-3.1-2.514-5.614-5.614-5.614z" clip-rule="evenodd"/><path fill="#61dfff" fill-rule="evenodd" d="M19.46 1.228H5.615a4.386 4.386 0 0 0-4.386 4.386v13.847a4.386 4.386 0 0 0 4.386 4.386h13.847a4.386 4.386 0 0 0 4.386-4.386V5.614a4.386 4.386 0 0 0-4.386-4.386M5.615 0A5.614 5.614 0 0 0 0 5.614v13.847c0 3.1 2.513 5.614 5.614 5.614h13.847c3.1 0 5.614-2.514 5.614-5.614V5.614C25.075 2.514 22.56 0 19.46 0z" clip-rule="evenodd"/></svg>
